Komodo/status/scalable/battery-empty-charging-symbolic.svg

<?xml version="1.0" encoding="UTF-8" standalone="no"?>
<!-- Created with Inkscape (http://www.inkscape.org/) -->
<svg id="svg2" xmlns:rdf="http://www.w3.org/1999/02/22-rdf-syntax-ns#" xmlns="http://www.w3.org/2000/svg" height="16" width="16" version="1.0" xmlns:cc="http://creativecommons.org/ns#" xmlns:xlink="http://www.w3.org/1999/xlink" xmlns:dc="http://purl.org/dc/elements/1.1/">
 <metadata id="metadata7">
  <rdf:RDF>
   <cc:Work rdf:about="">
    <dc:format>image/svg+xml</dc:format>
    <dc:type rdf:resource="http://purl.org/dc/dcmitype/StillImage"/>
    <dc:title/>
   </cc:Work>
  </rdf:RDF>
 </metadata>
 <g id="layer1" transform="translate(0,-6)">
  <path id="rect4889" style="opacity:.35;fill:#bebebe" d="m-17 11c-0.554 0-1 0.446-1 1v4c0 0.554 0.446 1 1 1h8c0.554 0 1-0.446 1-1v-4c0-0.554-0.446-1-1-1z"/>
  <path id="path4895" style="fill:#bebebe" d="m21.25-11c-0.692 0-1.25 0.558-1.25 1.25v7.5c0 0.6925 0.5575 1.25 1.25 1.25h11.5c0.692 0 1.25-0.5575 1.25-1.25v-1.75h1 0.5c0.277 0 0.5-0.223 0.5-0.5v-0.5-2-0.5c0-0.277-0.223-0.5-0.5-0.5h-0.5-1v-1.75c0-0.692-0.558-1.25-1.25-1.25h-11.5zm1.5 2h8.5c0.4155 0 0.75 0.3345 0.75 0.75v4.5c0 0.4155-0.334 0.75-0.75 0.75h-8.5c-0.416 0-0.75-0.3345-0.75-0.75v-4.5c0-0.4155 0.334-0.75 0.75-0.75z"/>
  <path id="path4245" style="opacity:.35;fill:#bebebe" d="m21-5 7-4v2.4585l5-0.4585-7 4v-2.5262z"/>
  <path id="path4255" style="fill:#bebebe" d="m0 20.75c0 0.692 0.5575 1.25 1.25 1.25h8.5c0.692 0 1.25-0.558 1.25-1.25v-1.688l-2-3.374v3.562c0 0.416-0.3345 0.75-0.75 0.75h-5.5c-0.4155 0-0.75-0.334-0.75-0.75v-8.5c0-0.416 0.3345-0.75 0.75-0.75h5.5c0.4155 0 0.75 0.334 0.75 0.75v3.25h0.9062a1.0122 1.0122 0 0 1 0.0938 0l1-0.03125v-3.875-0.1565-0.6875c0-0.6925-0.558-1.25-1.25-1.25h-1.75v-1-0.5c0-0.277-0.223-0.5-0.5-0.5h-0.5-3-0.5c-0.277 0-0.5 0.223-0.5 0.5v0.5 1h-1.75c-0.6925 0-1.25 0.5575-1.25 1.25v11.5z"/>
  <path id="path4262" style="fill:#bebebe" d="m1.25-12c-0.6925 0-1.25 0.558-1.25 1.25v8.5c0 0.24699 0.096079 0.46278 0.21875 0.65625a0.9677 0.9677 0 0 1 0.25 -0.21875l1.9375-1.2812c-0.2358-0.1261-0.4062-0.3691-0.4062-0.6562v-5.5c0-0.4155 0.3345-0.75 0.75-0.75h8.5c0.4155 0 0.75 0.3345 0.75 0.75v4.25 1.25 0.71875a0.9677 0.9677 0 0 1 0 0.0312 0.9677 0.9677 0 0 1 -0.469 0.8125l-1.781 1.1875h3c0.692 0 1.25-0.5575 1.25-1.25v-1.75h1 0.5c0.277 0 0.5-0.223 0.5-0.5v-0.5-3-0.5c0-0.277-0.223-0.5-0.5-0.5h-0.5-1v-1.75c0-0.692-0.558-1.25-1.25-1.25h-11.5zm5.75 7-6 4 4-0.5312v2.5312l6-4-4 0.4688v-2.4688z"/>
  <path id="path3773" d="m14 22-4-7h2.458l-0.458-5 4 7h-2.5262z" style="fill:#bebebe"/>
  <path id="path3775" style="fill:#bebebe" d="m1.25 28c-0.6925 0-1.25 0.558-1.25 1.25v8.5c0 0.692 0.5575 1.25 1.25 1.25h11.5c0.692 0 1.25-0.558 1.25-1.25v-1.75h1 0.5c0.277 0 0.5-0.223 0.5-0.5v-0.5-3-0.5c0-0.277-0.223-0.5-0.5-0.5h-0.5-1v-1.75c0-0.692-0.558-1.25-1.25-1.25h-11.5zm1.5 2h8.5c0.4155 0 0.75 0.3345 0.75 0.75v5.5c0 0.416-0.334 0.75-0.75 0.75h-8.5c-0.4155 0-0.75-0.334-0.75-0.75v-5.5c0-0.416 0.3345-0.75 0.75-0.75z"/>
 </g>
</svg>

<?xml version="1.0" encoding="UTF-8" standalone="no"?>
<!-- Created with Inkscape (http://www.inkscape.org/) -->

<svg
   xmlns:dc="http://purl.org/dc/elements/1.1/"
   xmlns:cc="http://creativecommons.org/ns#"
   xmlns:rdf="http://www.w3.org/1999/02/22-rdf-syntax-ns#"
   xmlns:svg="http://www.w3.org/2000/svg"
   xmlns="http://www.w3.org/2000/svg"
   xmlns:xlink="http://www.w3.org/1999/xlink"
   xmlns:sodipodi="http://sodipodi.sourceforge.net/DTD/sodipodi-0.dtd"
   xmlns:inkscape="http://www.inkscape.org/namespaces/inkscape"
   width="16"
   height="16"
   id="svg2"
   sodipodi:version="0.32"
   inkscape:version="0.48.1 r9760"
   version="1.0"
   sodipodi:docname="battery-empty-charging-symbolic.svg"
   inkscape:output_extension="org.inkscape.output.svg.inkscape"
   style="display:inline">
  <defs
     id="defs4">
    <linearGradient
       y2="17"
       x2="9"
       y1="5"
       x1="9"
       gradientUnits="userSpaceOnUse"
       id="linearGradient4104"
       xlink:href="#StandardGradient"
       inkscape:collect="always" />
    <linearGradient
       id="StandardGradient"
       gradientTransform="matrix(0.9984539,0,0,0.9984539,-0.0459776,0.05767558)"
       x1="10.710332"
       y1="1.9963325"
       x2="10.710332"
       y2="18.974037"
       gradientUnits="userSpaceOnUse">
      <stop
         style="stop-color:#000000;stop-opacity:0.86274511;"
         offset="0"
         id="stop3277" />
      <stop
         style="stop-color:#000000;stop-opacity:0.47058824;"
         offset="1"
         id="stop3279" />
    </linearGradient>
    <linearGradient
       y2="17"
       x2="9"
       y1="5"
       x1="9"
       gradientUnits="userSpaceOnUse"
       id="linearGradient3387"
       xlink:href="#StandardGradient"
       inkscape:collect="always"
       gradientTransform="translate(0,20)" />
  </defs>
  <sodipodi:namedview
     id="base"
     pagecolor="#ffffff"
     bordercolor="#fd0000"
     borderopacity="1"
     inkscape:pageopacity="0.0"
     inkscape:pageshadow="2"
     inkscape:zoom="11.212884"
     inkscape:cx="7.0091204"
     inkscape:cy="4.7787193"
     inkscape:document-units="px"
     inkscape:current-layer="layer1"
     showgrid="true"
     inkscape:showpageshadow="false"
     showguides="false"
     inkscape:guide-bbox="true"
     inkscape:window-width="1920"
     inkscape:window-height="1022"
     inkscape:window-x="0"
     inkscape:window-y="25"
     inkscape:window-maximized="1"
     inkscape:snap-global="false">
    <sodipodi:guide
       orientation="1,0"
       position="0,112"
       id="guide2383" />
    <sodipodi:guide
       orientation="0,1"
       position="26.278146,128"
       id="guide2385" />
    <sodipodi:guide
       orientation="1,0"
       position="128,54.082119"
       id="guide2387" />
    <sodipodi:guide
       orientation="0,1"
       position="78.156291,0"
       id="guide2389" />
    <sodipodi:guide
       orientation="0,1"
       position="60.863576,64.084768"
       id="guide2391" />
    <inkscape:grid
       type="xygrid"
       id="grid3672"
       visible="true"
       enabled="true"
       empspacing="8"
       snapvisiblegridlinesonly="true" />
  </sodipodi:namedview>
  <metadata
     id="metadata7">
    <rdf:RDF>
      <cc:Work
         rdf:about="">
        <dc:format>image/svg+xml</dc:format>
        <dc:type
           rdf:resource="http://purl.org/dc/dcmitype/StillImage" />
        <dc:title />
      </cc:Work>
    </rdf:RDF>
  </metadata>
  <g
     inkscape:label="Icon"
     inkscape:groupmode="layer"
     id="layer1"
     style="display:inline"
     transform="translate(0,-6)">
    <path
       style="opacity:0.35;fill:#bebebe;fill-opacity:1;stroke:none"
       d="m -17,11 c -0.554,0 -1,0.446 -1,1 l 0,4 c 0,0.554 0.446,1 1,1 l 8,0 c 0.554,0 1,-0.446 1,-1 0,-2 0,-2 0,-4 0,-0.554 -0.446,-1 -1,-1 z"
       id="rect4889"
       inkscape:connector-curvature="0"
       sodipodi:nodetypes="sssssccss" />
    <path
       style="fill:#bebebe;fill-opacity:1;stroke:none"
       d="M 21.25,-11 C 20.5575,-11 20,-10.4425 20,-9.75 l 0,7.5 c 0,0.6925 0.5575,1.25 1.25,1.25 l 11.5,0 C 33.4425,-1 34,-1.5575 34,-2.25 l 0,-1.75 1,0 0.5,0 c 0.277,0 0.5,-0.223 0.5,-0.5 l 0,-0.5 0,-2 0,-0.5 C 36,-7.777 35.777,-8 35.5,-8 l -0.5,0 -1,0 0,-1.75 C 34,-10.4425 33.4425,-11 32.75,-11 l -11.5,0 z m 1.5,2 8.5,0 c 0.4155,0 0.75,0.3345 0.75,0.75 l 0,4.5 C 32,-3.3345 31.6655,-3 31.25,-3 l -8.5,0 C 22.3345,-3 22,-3.3345 22,-3.75 l 0,-4.5 C 22,-8.6655 22.3345,-9 22.75,-9 z"
       id="path4895"
       inkscape:connector-curvature="0" />
    <path
       style="opacity:0.35;fill:#bebebe;fill-opacity:1;stroke:none"
       d="m 21,-5 7,-4 0,2.458476 L 33,-7 l -7,4 0,-2.526167 z"
       id="path4245"
       inkscape:connector-curvature="0"
       sodipodi:nodetypes="ccccccc" />
    <path
       style="fill:#bebebe;fill-opacity:1;stroke:none"
       d="M 0,20.75 C 0,21.4425 0.5575,22 1.25,22 l 8.5,0 C 10.4425,22 11,21.4425 11,20.75 L 11,19.0625 9,15.6875 9,19.25 C 9,19.6655 8.6655,20 8.25,20 l -5.5,0 C 2.3345,20 2,19.6655 2,19.25 l 0,-8.5 C 2,10.3345 2.3345,10 2.75,10 l 5.5,0 C 8.6655,10 9,10.3345 9,10.75 L 9,14 9.90625,14 A 1.0121545,1.0121545 0 0 1 10,14 l 1,-0.03125 0,-3.875 L 11,9.9375 11,9.25 C 11,8.5575 10.4425,8 9.75,8 L 8,8 8,7 8,6.5 C 8,6.223 7.777,6 7.5,6 L 7,6 4,6 3.5,6 C 3.223,6 3,6.223 3,6.5 L 3,7 3,8 1.25,8 C 0.5575,8 0,8.5575 0,9.25 l 0,11.5 z"
       id="path4255"
       inkscape:connector-curvature="0" />
    <path
       id="path4262"
       d="M 1.25,-12 C 0.5575,-12 0,-11.4425 0,-10.75 l 0,8.5 c 0,0.246992 0.09607927,0.462775 0.21875,0.65625 a 0.96769752,0.96769752 0 0 1 0.25,-0.21875 l 1.9375,-1.28125 C 2.1704485,-3.219867 2,-3.462885 2,-3.75 l 0,-5.5 C 2,-9.6655 2.3345,-10 2.75,-10 l 8.5,0 c 0.4155,0 0.75,0.3345 0.75,0.75 l 0,4.25 0,1.25 0,0.71875 A 0.96769752,0.96769752 0 0 1 12,-3 0.96769752,0.96769752 0 0 1 11.53125,-2.1875 L 9.75,-1 l 3,0 C 13.4425,-1 14,-1.5575 14,-2.25 l 0,-1.75 1,0 0.5,0 c 0.277,0 0.5,-0.223 0.5,-0.5 l 0,-0.5 0,-3 0,-0.5 C 16,-8.777 15.777,-9 15.5,-9 l -0.5,0 -1,0 0,-1.75 C 14,-11.4425 13.4425,-12 12.75,-12 l -11.5,0 z M 7,-5 1,-1 5,-1.53125 5,1 11,-3 7,-2.53125 7,-5 z"
       style="fill:#bebebe;fill-opacity:1;stroke:none;display:inline"
       inkscape:connector-curvature="0" />
    <path
       sodipodi:nodetypes="ccccccc"
       inkscape:connector-curvature="0"
       id="path3773"
       d="M 14,22 10,15 12.458476,15 12,10 l 4,7 -2.526167,0 z"
       style="fill:#bebebe;fill-opacity:1;stroke:none" />
    <path
       inkscape:connector-curvature="0"
       style="fill:#bebebe;fill-opacity:1;stroke:none"
       d="M 1.25,28 C 0.5575,28 0,28.5575 0,29.25 l 0,8.5 C 0,38.4425 0.5575,39 1.25,39 l 11.5,0 C 13.4425,39 14,38.4425 14,37.75 l 0,-1.75 1,0 0.5,0 c 0.277,0 0.5,-0.223 0.5,-0.5 l 0,-0.5 0,-3 0,-0.5 C 16,31.223 15.777,31 15.5,31 l -0.5,0 -1,0 0,-1.75 C 14,28.5575 13.4425,28 12.75,28 l -11.5,0 z m 1.5,2 8.5,0 c 0.4155,0 0.75,0.3345 0.75,0.75 l 0,5.5 C 12,36.6655 11.6655,37 11.25,37 l -8.5,0 C 2.3345,37 2,36.6655 2,36.25 l 0,-5.5 C 2,30.3345 2.3345,30 2.75,30 z"
       id="path3775" />
  </g>
</svg>
